X: 832
T: Geçti Sevdalarla Ömrüm
C: Şükrü Tunar
O: Turkey
F: http://compmusic.upf.edu/node/140
N: huseyni--sarki--musemmen--gecti_sevdalarla--sukru_tunar
N: makam= huseyni
N: form= sarki
N: usul= musemmen = 8/8
M: 8/8
L: 1/16
K: C _2/4B ^3/4f  
Q: 1/4=120
%%MIDI tuningsystem comma53
A3/2B/cd e=fe3/2d/ cde4z2  | d3/2e/fg a=bag fge4z2  | 
w:  ARANAĞME  |   | 
e3/2f/ga g_bag =fed2 {e}dec2  | d2e2 eddc cBc4z2  | 
w:   |   | 
d4 e2e2 a2ag =fed2  | dcB2 BAA4A4z2  | \
w:   |   | 
A3/2B/cd e=fe3/2d/ cde4z2  | 
w:  ARANAĞME  | 
d3/2e/fg a=bag fge4z2  | e3/2f/ga g_bag =fed2 {e}dec2  | 
w:   |   | 
d2e2 eddc cBc4z2  | d4 e2e2 a2ag =fed2  | \
w:   |   | 
dcB2 BAA4A4z2  | 
w:   | 
d4 e2e4e6  | g2f2 fee3ded dcd2  | ecd2 d2de c2cd B2A2  | 
w:  Geç ti  sev da  |  lar *  la  *  öm *  rüm   |  ih *  *  ti yâr_ *  *  ol  | 
ded2 e2e8z2  | g2f2 fee3dc'=b a2gf  | \
w:  dum  *  *  bu gün    |  ih *  ti *  yâr_ *  ol  | 
agf2 fee3=fed cBA2  | 
w:  dum  *  *  bu *  gün   SAZ  | 
d4 e2e4e6  | g2f2 fee3ded dcd2  | ecd2 d2de c2cd B2A2  | 
w:  Geç ti  sev da  |  lar *  la  *  öm *  rüm   |  ih *  *  ti yâr_ *  *  ol  | 
ded2 e2e8z2  | g2f2 fee3dc'=b a2gf  | \
w:  dum  *  *  bu gün    |  ih *  ti *  yâr_ *  ol  | 
agf2 fee4d3/2e/ fga2  | 
w:  dum  *  *  bu *  gün   SAZ  | 
a4 gfc'b a2gf fee2  | e4 e2e2 fggf ede2  | 
w:  Ak  pak_ *  ol *  *  muş   |  saç la rım *  *  la   | 
edd2 d2d4d2 c2B2  | c2d2 {e}dcc4c2 B2A2  | \
w:  bî *  *  ka rar_ ol  |  dum  *  *  bu *  gün   SAZ  | 
d4 e2e2 a2ag =fed2  | 
w:  bî ka rar_ *  ol  | 
c2B2 BAA4d3/2e/ fga2  | a4 gfc'b a2gf fee2  | 
w:  dum  *  bu *  gün   SAZ  |  Ak  pak_ *  ol *  *  muş   | 
e4 e2e2 fggf ede2  | edd2 d2d4d2 c2B2  | \
w:  saç la rım *  *  la   |  bî *  *  ka rar_ ol  | 
c2d2 {e}dcc4c2 B2A2  | 
w:  dum  *  *  bu *  gün   SAZ  | 
d4 e2e2 a2ag =fed2  | c2B2 BAA4a^g ^1/4fga2  | \
w:  bî ka rar_ *  ol  |  dum  *  bu *  gün   SAZ  | 
a4 =b2c'b a2a^g ^1/4fef2  | 
w:  Bir  mu hab *  *  bet   | 
=b2a2 ^g2g^1/4f fee4z2  | d3e e2e3def ga=bg  | \
w:  neş *  e siy *  *  *  le   |  ilk *  ba har_ *  ol  | 
agf2 fee8z2  | 
w:  dum  *  *  bu *  gün    | 
g2f2 fee3dc'=b a2gf  | agf2 fee4d3/2e/ fga2  | 
w:  ilk *  ba *  har_ *  ol  |  dum  *  *  bu *  gün   SAZ  | 
a4 gfc'b a2gf fee2  | e4 e2e2 fggf ede2  | 
w:  Ak  pak_ *  ol *  *  muş   |  saç la rım *  *  la   | 
edd2 d2d4d2 c2B2  | c2d2 {e}dcc4c2 B2A2  | \
w:  bî *  *  ka rar_ ol  |  dum  *  *  bu *  gün   SAZ  | 
d4 e2e2 a2ag =fed2  | 
w:  bî ka rar_ *  ol  | 
c2B2 BAA4d3/2e/ fga2  | a4 gfc'b a2gf fee2  | 
w:  dum  *  bu *  gün   SAZ  |  Ak  pak_ *  ol *  *  muş   | 
e4 e2e2 fggf ede2  | edd2 d2d4d2 c2B2  | \
w:  saç la rım *  *  la   |  bî *  *  ka rar_ ol  | 
c2d2 {e}dcc4c2 B2A2  | 
w:  dum  *  *  bu *  gün   SAZ  | 
d4 e2e2 a2ag =fed2  | c2B2 BAA4|
w:  bî ka rar_ *  ol  |  dum  *  bu *  gün    | 


